build/assets/img/stage-promotion/image-element-3.svg

<svg width="67" height="88" viewBox="0 0 67 88" fill="none" xmlns="http://www.w3.org/2000/svg">
<g filter="url(#filter0_di)">
<path d="M45.2974 23.2949L13.0562 35.0653C10.855 35.8717 8.95627 37.4387 7.77509 39.4239C6.59391 41.4091 6.2263 43.651 6.75261 45.6597L10.0293 57.9638C10.5674 59.9681 11.9551 61.5717 13.889 62.4241C15.8229 63.2765 18.1458 63.3084 20.3499 62.5128L28.1441 59.6731C32.6864 61.4998 35.6163 63.3759 36.8694 62.9554C38.1225 62.5349 39.8468 58.4725 42.4589 54.4926L52.5752 50.7142C54.7764 49.9078 56.6751 48.3407 57.8563 46.3555C59.0375 44.3703 59.4051 42.1284 58.8787 40.1197L55.6102 27.8108C55.0598 25.8184 53.6692 24.2276 51.7392 23.3825C49.8092 22.5374 47.4951 22.5059 45.2974 23.2949Z" fill="url(#paint0_linear)"/>
<path d="M22.765 46.018L25.0564 54.3221C25.2102 54.8797 25.8502 55.1526 26.4858 54.9316L29.9012 53.7444C30.5368 53.5234 30.9273 52.8924 30.7735 52.3348L28.4821 44.0307C28.3283 43.4731 27.6883 43.2002 27.0527 43.4212L23.6373 44.6084C23.0017 44.8293 22.6112 45.4605 22.765 46.018Z" fill="#FCFCFC"/>
<path d="M41.3627 39.5584L41.1896 39.6626C41.5768 39.4418 41.8903 39.1088 42.0766 38.7206C42.2629 38.3324 42.3103 37.9131 42.2108 37.5345C42.1112 37.1559 41.8709 36.8415 41.531 36.645C41.191 36.4486 40.7725 36.3823 40.3471 36.4575L34.7359 38.4989C35.3292 37.025 35.5408 35.4838 35.3509 34.0186C34.8078 31.9612 33.2825 31.2609 32.4401 31.4289C32.0824 31.4864 31.7411 31.669 31.4845 31.9404C31.2278 32.2117 31.0745 32.5518 31.0551 32.893C30.9884 33.602 31.7031 34.6256 31.6627 35.1055C31.5794 35.8439 30.5976 37.1427 29.4054 39.7411C28.7907 41.1713 28.6897 42.6921 29.1199 44.0423L29.8707 46.8859L30.6092 49.7272L30.9607 51.047C30.9948 51.178 31.0567 51.2975 31.143 51.3986C31.2292 51.4998 31.3381 51.5807 31.4635 51.6366C31.5888 51.6926 31.7281 51.7225 31.8734 51.7247C32.0187 51.7269 32.1672 51.7014 32.3104 51.6495L42.7387 47.8608C42.9098 47.8038 43.072 47.7158 43.2158 47.6019C43.3595 47.4881 43.4818 47.3508 43.5753 47.1982C43.6689 47.0455 43.7318 46.8807 43.7603 46.7135C43.7889 46.5462 43.7825 46.38 43.7415 46.2246C43.7006 46.0693 43.6259 45.928 43.5219 45.8092C43.4179 45.6903 43.2867 45.5963 43.1362 45.5328C42.9856 45.4693 42.8188 45.4375 42.6455 45.4394C42.4723 45.4413 42.2962 45.4767 42.1277 45.5437L42.2925 45.4444C42.5067 45.3786 42.7108 45.2731 42.8921 45.1344C43.0735 44.9957 43.2285 44.8267 43.3474 44.6378C43.4663 44.4489 43.5468 44.244 43.5838 44.0358C43.6208 43.8276 43.6136 43.6204 43.5627 43.4269C43.5118 43.2334 43.4181 43.0577 43.2876 42.9106C43.157 42.7635 42.9922 42.6481 42.8034 42.5715C42.6145 42.4948 42.4055 42.4585 42.1893 42.4648C41.973 42.4711 41.7541 42.5199 41.5458 42.6081L42.1217 42.397C42.3359 42.3312 42.54 42.2257 42.7214 42.087C42.9028 41.9483 43.0577 41.7793 43.1766 41.5904C43.2955 41.4015 43.376 41.1966 43.413 40.9884C43.45 40.7802 43.4429 40.573 43.3919 40.3795C43.341 40.186 43.2473 40.0103 43.1168 39.8632C42.9862 39.7161 42.8214 39.6007 42.6326 39.524C42.4437 39.4474 42.2348 39.4111 42.0185 39.4174C41.8022 39.4237 41.5833 39.4725 41.375 39.5607L41.3627 39.5584Z" fill="#FCFCFC"/>
</g>
<defs>
<filter id="filter0_di" x="4.51855" y="20.7251" width="60.5951" height="48.3622" filterUnits="userSpaceOnUse" color-interpolation-filters="sRGB">
<feFlood flood-opacity="0" result="BackgroundImageFix"/>
<feColorMatrix in="SourceAlpha" type="matrix" values="0 0 0 0 0 0 0 0 0 0 0 0 0 0 0 0 0 0 127 0"/>
<feOffset dx="2" dy="2"/>
<feGaussianBlur stdDeviation="2"/>
<feColorMatrix type="matrix" values="0 0 0 0 0 0 0 0 0 0 0 0 0 0 0 0 0 0 0.15 0"/>
<feBlend mode="normal" in2="BackgroundImageFix" result="effect1_dropShadow"/>
<feBlend mode="normal" in="SourceGraphic" in2="effect1_dropShadow" result="shape"/>
<feColorMatrix in="SourceAlpha" type="matrix" values="0 0 0 0 0 0 0 0 0 0 0 0 0 0 0 0 0 0 127 0" result="hardAlpha"/>
<feOffset dx="-2" dy="-2"/>
<feGaussianBlur stdDeviation="2"/>
<feComposite in2="hardAlpha" operator="arithmetic" k2="-1" k3="1"/>
<feColorMatrix type="matrix" values="0 0 0 0 0 0 0 0 0 0 0 0 0 0 0 0 0 0 0.2 0"/>
<feBlend mode="normal" in2="shape" result="effect2_innerShadow"/>
</filter>
<linearGradient id="paint0_linear" x1="13120.2" y1="15913.6" x2="14544.7" y2="17490.4" gradientUnits="userSpaceOnUse">
<stop stop-color="#65BBFF"/>
<stop offset="1" stop-color="#315DA4"/>
</linearGradient>
</defs>
</svg>

<svg width="67" height="88" fill="none" xmlns="http://www.w3.org/2000/svg"><g filter="url(#filter0_di)"><path d="M45.297 23.295l-32.24 11.77c-2.202.807-4.1 2.374-5.282 4.359-1.181 1.985-1.549 4.227-1.022 6.236l3.276 12.304c.538 2.004 1.926 3.608 3.86 4.46 1.934.852 4.257.884 6.46.089l7.795-2.84c4.542 1.827 7.472 3.703 8.725 3.282 1.254-.42 2.978-4.483 5.59-8.462l10.116-3.779c2.201-.806 4.1-2.373 5.281-4.358 1.181-1.986 1.55-4.228 1.023-6.236L55.61 27.81c-.55-1.992-1.94-3.582-3.87-4.427-1.93-.846-4.245-.877-6.443-.088z" fill="url(#paint0_linear)"/><path d="M22.765 46.018l2.291 8.304c.154.558.794.83 1.43.61l3.415-1.188c.636-.22 1.026-.852.872-1.41l-2.29-8.303c-.155-.558-.795-.83-1.43-.61l-3.416 1.187c-.635.221-1.026.853-.872 1.41zm18.598-6.46l-.173.105c.387-.221.7-.554.887-.942a1.73 1.73 0 00.134-1.186c-.1-.38-.34-.693-.68-.89a1.752 1.752 0 00-1.184-.188L34.736 38.5c.593-1.474.805-3.015.615-4.48-.543-2.058-2.069-2.758-2.91-2.59-.359.057-.7.24-.957.511a1.53 1.53 0 00-.429.953c-.067.709.648 1.733.608 2.212-.084.739-1.065 2.038-2.258 4.636-.614 1.43-.715 2.951-.285 4.301l.75 2.844.74 2.841.35 1.32a.881.881 0 00.503.59c.126.056.265.085.41.088.146.002.294-.024.437-.075l10.429-3.79a1.57 1.57 0 00.836-.662c.094-.153.157-.317.185-.484a1.153 1.153 0 00-.018-.49 1.024 1.024 0 00-.606-.691 1.227 1.227 0 00-.49-.094c-.174.002-.35.038-.518.105l.164-.1a1.917 1.917 0 001.055-.806c.12-.19.2-.394.237-.602a1.42 1.42 0 00-.021-.61 1.256 1.256 0 00-.76-.855 1.514 1.514 0 00-.614-.106 1.789 1.789 0 00-.643.143l.576-.211a1.918 1.918 0 001.055-.807 1.7 1.7 0 00.236-.602 1.41 1.41 0 00-.021-.608 1.256 1.256 0 00-.76-.856 1.515 1.515 0 00-.613-.107 1.789 1.789 0 00-.644.144l-.012-.003z" fill="#FCFCFC"/></g><defs><linearGradient id="paint0_linear" x1="13120.2" y1="15913.6" x2="14544.7" y2="17490.4" gradientUnits="userSpaceOnUse"><stop stop-color="#65BBFF"/><stop offset="1" stop-color="#315DA4"/></linearGradient><filter id="filter0_di" x="4.519" y="20.725" width="60.595" height="48.362" filterUnits="userSpaceOnUse" color-interpolation-filters="sRGB"><feFlood flood-opacity="0" result="BackgroundImageFix"/><feColorMatrix in="SourceAlpha" values="0 0 0 0 0 0 0 0 0 0 0 0 0 0 0 0 0 0 127 0"/><feOffset dx="2" dy="2"/><feGaussianBlur stdDeviation="2"/><feColorMatrix values="0 0 0 0 0 0 0 0 0 0 0 0 0 0 0 0 0 0 0.15 0"/><feBlend in2="BackgroundImageFix" result="effect1_dropShadow"/><feBlend in="SourceGraphic" in2="effect1_dropShadow" result="shape"/><feColorMatrix in="SourceAlpha" values="0 0 0 0 0 0 0 0 0 0 0 0 0 0 0 0 0 0 127 0" result="hardAlpha"/><feOffset dx="-2" dy="-2"/><feGaussianBlur stdDeviation="2"/><feComposite in2="hardAlpha" operator="arithmetic" k2="-1" k3="1"/><feColorMatrix values="0 0 0 0 0 0 0 0 0 0 0 0 0 0 0 0 0 0 0.2 0"/><feBlend in2="shape" result="effect2_innerShadow"/></filter></defs></svg>
